z-union/img/icons/vk.svg

<svg width="43" height="26" viewBox="0 0 43 26" fill="none" xmlns="http://www.w3.org/2000/svg">
<path d="M41.5781 2.21875C41.4219 3 40.7969 4.27604 39.7031 6.04688C38.6615 7.81771 37.6979 9.38021 36.8125 10.7344C35.9271 12.0365 35.4583 12.7135 35.4062 12.7656C35.0938 13.2344 34.9375 13.5729 34.9375 13.7812C34.9375 13.9896 35.0938 14.3542 35.4062 14.875C35.4062 14.875 35.5625 15.0573 35.875 15.4219C36.2396 15.7865 36.6562 16.2031 37.125 16.6719C37.5938 17.1406 38.1146 17.6875 38.6875 18.3125C39.2604 18.9375 39.7812 19.5625 40.25 20.1875C40.7708 20.7604 41.2135 21.3594 41.5781 21.9844C41.9948 22.6094 42.2812 23.1302 42.4375 23.5469C42.8021 24.849 42.2812 25.5 40.875 25.5H36.2656C35.901 25.5 35.5885 25.4479 35.3281 25.3438C35.0677 25.2396 34.7812 25.0573 34.4688 24.7969C34.1562 24.5365 33.8698 24.25 33.6094 23.9375C33.349 23.625 32.9583 23.1823 32.4375 22.6094C31.9167 22.0365 31.3958 21.4896 30.875 20.9688C28.7917 18.9896 27.2552 18 26.2656 18C25.6406 18 25.276 18.1823 25.1719 18.5469C25.0677 18.9115 25.0156 19.9531 25.0156 21.6719C25.0677 22.5052 25.0938 23.1823 25.0938 23.7031C25.0938 24.3281 24.8854 24.7969 24.4688 25.1094C24.0521 25.3698 23.1406 25.5 21.7344 25.5C19.2865 25.5 16.8125 24.7708 14.3125 23.3125C11.8125 21.8542 9.625 19.7708 7.75 17.0625C5.97917 14.6667 4.49479 12.2969 3.29688 9.95312C2.15104 7.55729 1.39583 5.73438 1.03125 4.48438C0.666667 3.23438 0.484375 2.34896 0.484375 1.82812C0.484375 0.942708 1.00521 0.5 2.04688 0.5H6.65625C7.22917 0.5 7.64583 0.630208 7.90625 0.890625C8.21875 1.15104 8.47917 1.61979 8.6875 2.29688C9.78125 5.47396 11.1094 8.3125 12.6719 10.8125C14.2865 13.3125 15.5104 14.5625 16.3438 14.5625C16.6562 14.5625 16.8646 14.4583 16.9688 14.25C17.125 13.9896 17.2031 13.5208 17.2031 12.8438V6.04688C17.151 5.31771 17.0208 4.69271 16.8125 4.17188C16.6042 3.65104 16.3958 3.28646 16.1875 3.07812C15.9792 2.81771 15.7708 2.55729 15.5625 2.29688C15.4062 2.03646 15.3281 1.80208 15.3281 1.59375C15.3281 1.38542 15.3802 1.20312 15.4844 1.04688C15.5885 0.890625 15.7188 0.760417 15.875 0.65625C16.0833 0.552083 16.2917 0.5 16.5 0.5H23.7656C24.599 0.5 25.0156 1.07292 25.0156 2.21875V11.2812C25.0156 12.1667 25.25 12.6094 25.7188 12.6094C26.2396 12.6094 26.9688 12.1406 27.9062 11.2031C28.8958 10.1094 29.8594 8.78125 30.7969 7.21875C31.7344 5.65625 32.4375 4.35417 32.9062 3.3125L33.6094 1.82812C33.974 0.942708 34.625 0.5 35.5625 0.5H40.1719C41.4219 0.5 41.8906 1.07292 41.5781 2.21875Z" fill="white"/>
</svg>

<svg width="43" height="26" fill="none" xmlns="http://www.w3.org/2000/svg"><path d="M41.578 2.219c-.156.781-.781 2.057-1.875 3.828a117.516 117.516 0 01-2.89 4.687c-.886 1.303-1.355 1.98-1.407 2.032-.312.468-.468.807-.468 1.015 0 .209.156.573.468 1.094l.469.547 1.25 1.25c.469.469.99 1.015 1.563 1.64a25.09 25.09 0 011.562 1.875c.52.573.964 1.172 1.328 1.797.417.625.703 1.146.86 1.563.364 1.302-.157 1.953-1.563 1.953h-4.61c-.364 0-.676-.052-.937-.156-.26-.104-.547-.287-.86-.547a6.69 6.69 0 01-.859-.86 44.44 44.44 0 00-1.172-1.328 47.618 47.618 0 00-1.562-1.64c-2.083-1.98-3.62-2.969-4.61-2.969-.624 0-.989.182-1.093.547-.104.364-.156 1.406-.156 3.125.052.833.078 1.51.078 2.031 0 .625-.209 1.094-.625 1.406-.417.26-1.328.391-2.735.391-2.448 0-4.922-.73-7.422-2.188-2.5-1.458-4.687-3.541-6.562-6.25-1.77-2.395-3.255-4.765-4.453-7.109C2.15 7.557 1.396 5.734 1.03 4.484.667 3.234.484 2.35.484 1.828.484.943 1.005.5 2.047.5h4.61c.572 0 .989.13 1.25.39.312.261.572.73.78 1.407 1.094 3.177 2.422 6.015 3.985 8.515 1.614 2.5 2.838 3.75 3.672 3.75.312 0 .52-.104.625-.312.156-.26.234-.73.234-1.406V6.047c-.052-.73-.182-1.354-.39-1.875-.209-.521-.417-.886-.625-1.094l-.625-.781c-.157-.26-.235-.495-.235-.703 0-.209.052-.39.156-.547.104-.156.235-.287.391-.39.208-.105.417-.157.625-.157h7.266c.833 0 1.25.573 1.25 1.719v9.062c0 .886.234 1.328.703 1.328.52 0 1.25-.468 2.187-1.406.99-1.094 1.953-2.422 2.89-3.984.938-1.563 1.642-2.865 2.11-3.907l.703-1.484C33.974.943 34.625.5 35.562.5h4.61c1.25 0 1.719.573 1.406 1.719z" fill="#fff"/></svg>
